src/assets/fav-unfill-icon.svg

<svg width="16" height="16" viewBox="0 0 16 16" fill="none" xmlns="http://www.w3.org/2000/svg">
<path d="M13.9958 2.52814L13.9961 2.52839C14.3929 2.93123 14.7082 3.41019 14.9236 3.93821C15.139 4.46624 15.25 5.03262 15.25 5.60489C15.25 6.17715 15.139 6.74353 14.9236 7.27157C14.7082 7.79958 14.3929 8.27854 13.9961 8.68138L13.9959 8.68155L8.03885 14.7336L8.03671 14.7358C8.03153 14.7411 8.02602 14.7446 8.02082 14.7468C8.01564 14.749 8.01052 14.75 8.00564 14.75C8.00076 14.75 7.99564 14.749 7.99047 14.7468C7.98526 14.7446 7.97976 14.7411 7.97459 14.7358L7.97243 14.7336L2.01537 8.68155L2.01353 8.67969C1.24718 7.90656 0.795676 6.86486 0.753279 5.7637C0.710881 4.6625 1.08094 3.58765 1.786 2.75547C2.49078 1.92364 3.47729 1.39644 4.54557 1.27626C5.61375 1.15609 6.68843 1.45125 7.55348 2.10494L8.00413 2.44547L8.45587 2.10639C9.27705 1.49001 10.2868 1.19469 11.3018 1.27177C12.3168 1.34886 13.273 1.79357 13.9958 2.52814Z" stroke="currentColor" stroke-width="1.5"/>
</svg>

<svg xmlns="http://www.w3.org/2000/svg" width="16" height="16" fill="none" viewBox="0 0 16 16"><path stroke="currentColor" stroke-width="1.5" d="M13.996 2.528c.397.403.712.882.928 1.41a4.414 4.414 0 0 1 0 3.334 4.35 4.35 0 0 1-.928 1.41l-5.957 6.052-.002.002a.049.049 0 0 1-.016.01.039.039 0 0 1-.03 0 .049.049 0 0 1-.016-.01l-.003-.002-5.957-6.052-.001-.002a4.382 4.382 0 0 1-1.26-2.916 4.394 4.394 0 0 1 1.032-3.009 4.206 4.206 0 0 1 5.767-.65l.451.34.452-.339a4.207 4.207 0 0 1 2.846-.834 4.23 4.23 0 0 1 2.694 1.256Z"/></svg>
